images/adele-left-arrow.svg

<svg width="14" height="14" viewBox="0 0 14 14" fill="none" xmlns="http://www.w3.org/2000/svg">
<g id="right-arrow 2" opacity="0.5">
<g id="Group">
<g id="Group_2">
<path id="Vector" d="M3.11172 7.54628L9.3419 13.7763C9.48599 13.9206 9.67835 14 9.88345 14C10.0886 14 10.2809 13.9206 10.425 13.7763L10.8838 13.3176C11.1824 13.0188 11.1824 12.533 10.8838 12.2345L5.65219 7.0029L10.8896 1.76547C11.0337 1.62126 11.1133 1.42901 11.1133 1.22402C11.1133 1.0188 11.0337 0.826562 10.8896 0.682239L10.4308 0.223657C10.2866 0.0794468 10.0944 0 9.88926 0C9.68415 0 9.4918 0.0794468 9.3477 0.223657L3.11172 6.45941C2.96728 6.60408 2.88795 6.79723 2.8884 7.00256C2.88795 7.20869 2.96728 7.40173 3.11172 7.54628Z" fill="#D64374"/>
</g>
</g>
</g>
</svg>

<svg xmlns="http://www.w3.org/2000/svg" width="14" height="14" fill="none"><path fill="#D64374" d="m3.112 7.546 6.23 6.23a.76.76 0 0 0 .541.224.76.76 0 0 0 .542-.224l.459-.458a.767.767 0 0 0 0-1.083L5.652 7.003l5.238-5.238a.76.76 0 0 0 .223-.541.761.761 0 0 0-.223-.542l-.46-.458A.76.76 0 0 0 9.89 0a.76.76 0 0 0-.542.224L3.112 6.459a.761.761 0 0 0-.224.544c0 .206.08.399.224.543Z" opacity=".5"/></svg>
